flaticon/music/piccolo.svg

<svg xmlns="http://www.w3.org/2000/svg" width="32" height="32" viewBox="0 0 24 24">
    <path d="M 23.695312 1.121094 L 22.878906 0.304688 C 22.472656 -0.101562 21.8125 -0.101562 21.40625 0.304688 L 16.734375 4.980469 L 16.058594 4.300781 C 15.898438 4.144531 15.644531 4.144531 15.484375 4.300781 L 9.417969 10.367188 C 9.261719 10.527344 9.261719 10.78125 9.417969 10.941406 L 10.09375 11.617188 L 7.632812 14.078125 L 7.363281 13.804688 C 7.203125 13.648438 6.949219 13.648438 6.789062 13.804688 C 6.632812 13.964844 6.632812 14.21875 6.789062 14.378906 L 7.0625 14.648438 L 6.421875 15.289062 L 6.148438 15.019531 C 5.992188 14.859375 5.734375 14.859375 5.578125 15.019531 C 5.417969 15.175781 5.417969 15.433594 5.578125 15.589844 L 5.847656 15.863281 L 4.871094 16.839844 C 4.722656 16.6875 4.453125 16.6875 4.300781 16.839844 L 2.011719 19.128906 C 1.855469 19.285156 1.855469 19.539062 2.011719 19.699219 L 0.117188 21.59375 C -0.0390625 21.753906 -0.0390625 22.007812 0.117188 22.167969 L 1.832031 23.882812 C 1.914062 23.960938 2.015625 24 2.121094 24 C 2.222656 24 2.328125 23.960938 2.40625 23.882812 L 4.300781 21.984375 C 4.378906 22.066406 4.484375 22.105469 4.585938 22.105469 C 4.691406 22.105469 4.792969 22.066406 4.871094 21.984375 L 7.160156 19.699219 C 7.238281 19.625 7.277344 19.519531 7.277344 19.414062 C 7.277344 19.304688 7.238281 19.203125 7.160156 19.128906 L 8.136719 18.148438 L 8.410156 18.421875 C 8.488281 18.5 8.589844 18.539062 8.695312 18.539062 C 8.796875 18.539062 8.902344 18.5 8.980469 18.421875 C 9.140625 18.265625 9.140625 18.007812 8.980469 17.851562 L 8.710938 17.578125 L 9.351562 16.9375 L 9.621094 17.207031 C 9.703125 17.289062 9.804688 17.328125 9.910156 17.328125 C 10.011719 17.328125 10.117188 17.289062 10.195312 17.207031 C 10.351562 17.050781 10.351562 16.796875 10.195312 16.636719 L 9.921875 16.367188 L 10.804688 15.484375 C 10.839844 15.496094 10.878906 15.507812 10.917969 15.507812 L 11.726562 15.507812 C 11.835938 15.507812 11.9375 15.464844 12.015625 15.390625 L 12.417969 14.984375 C 12.492188 14.910156 12.535156 14.804688 12.535156 14.699219 L 12.535156 13.890625 C 12.535156 13.851562 12.523438 13.8125 12.511719 13.773438 L 12.824219 13.460938 C 12.863281 13.472656 12.902344 13.484375 12.941406 13.484375 L 13.75 13.484375 C 13.859375 13.484375 13.960938 13.441406 14.035156 13.367188 L 14.441406 12.960938 C 14.515625 12.886719 14.558594 12.785156 14.558594 12.675781 L 14.558594 11.867188 C 14.558594 11.828125 14.546875 11.789062 14.535156 11.75 L 14.847656 11.441406 C 14.886719 11.453125 14.921875 11.464844 14.964844 11.464844 L 15.773438 11.464844 C 15.878906 11.464844 15.980469 11.421875 16.058594 11.34375 L 16.460938 10.941406 C 16.539062 10.863281 16.582031 10.761719 16.582031 10.65625 L 16.582031 9.847656 C 16.582031 9.804688 16.570312 9.769531 16.558594 9.730469 L 16.871094 9.417969 C 16.90625 9.429688 16.945312 9.441406 16.984375 9.441406 L 17.792969 9.441406 C 17.902344 9.441406 18.003906 9.398438 18.078125 9.324219 L 18.484375 8.917969 C 18.558594 8.84375 18.601562 8.742188 18.601562 8.632812 L 18.601562 7.824219 C 18.601562 7.785156 18.589844 7.746094 18.578125 7.707031 L 18.890625 7.398438 C 18.929688 7.40625 18.96875 7.417969 19.007812 7.417969 L 19.816406 7.417969 C 19.921875 7.417969 20.027344 7.378906 20.101562 7.300781 L 20.507812 6.898438 C 20.582031 6.820312 20.625 6.71875 20.625 6.609375 L 20.625 5.800781 C 20.625 5.761719 20.613281 5.722656 20.601562 5.6875 L 21.3125 4.972656 L 21.386719 5.042969 C 21.621094 5.28125 21.933594 5.398438 22.242188 5.398438 C 22.554688 5.398438 22.863281 5.28125 23.101562 5.042969 C 23.574219 4.570312 23.574219 3.800781 23.101562 3.328125 L 23.03125 3.257812 L 23.695312 2.589844 C 24.101562 2.1875 24.101562 1.527344 23.695312 1.121094 Z M 2.121094 23.023438 L 0.976562 21.878906 L 2.585938 20.269531 L 3.730469 21.414062 Z M 4.585938 21.128906 L 2.871094 19.414062 L 4.585938 17.699219 L 6.304688 19.414062 Z M 10.277344 10.65625 L 15.773438 5.160156 L 16.160156 5.550781 L 10.667969 11.046875 Z M 6.589844 18.554688 L 5.445312 17.410156 L 6.421875 16.433594 L 7.566406 17.578125 Z M 8.136719 17.007812 L 6.992188 15.863281 L 7.632812 15.222656 L 8.777344 16.367188 Z M 11.726562 14.53125 L 11.558594 14.699219 L 11.085938 14.699219 L 10.917969 14.53125 L 10.917969 14.058594 L 11.085938 13.890625 L 11.558594 13.890625 L 11.726562 14.058594 Z M 13.75 12.507812 L 13.582031 12.675781 L 13.109375 12.675781 L 12.941406 12.507812 L 12.941406 12.035156 L 13.109375 11.867188 L 13.582031 11.867188 L 13.75 12.035156 Z M 15.773438 10.488281 L 15.605469 10.65625 L 15.128906 10.65625 L 14.960938 10.488281 L 14.960938 10.011719 L 15.128906 9.847656 L 15.605469 9.847656 L 15.738281 9.980469 L 15.773438 10.011719 Z M 17.792969 8.464844 L 17.625 8.632812 L 17.152344 8.632812 L 16.984375 8.464844 L 16.984375 7.992188 L 17.152344 7.824219 L 17.625 7.824219 L 17.792969 7.992188 Z M 19.816406 6.441406 L 19.648438 6.609375 L 19.175781 6.609375 L 19.007812 6.441406 L 19.007812 5.96875 L 19.175781 5.800781 L 19.648438 5.800781 L 19.816406 5.96875 Z M 22.527344 3.898438 C 22.6875 4.058594 22.6875 4.3125 22.527344 4.472656 C 22.371094 4.628906 22.117188 4.628906 21.957031 4.472656 L 21.886719 4.402344 L 22.457031 3.828125 Z M 23.125 2.019531 L 22.457031 2.683594 L 21.957031 2.183594 C 21.800781 2.027344 21.542969 2.027344 21.386719 2.183594 C 21.226562 2.34375 21.226562 2.597656 21.386719 2.753906 L 21.886719 3.257812 L 21.316406 3.828125 L 20.8125 3.328125 C 20.65625 3.167969 20.398438 3.167969 20.242188 3.328125 C 20.082031 3.484375 20.082031 3.742188 20.242188 3.898438 L 20.742188 4.402344 L 20.066406 5.078125 C 20.046875 5.0625 20.023438 5.054688 20 5.042969 C 19.984375 5.035156 19.972656 5.027344 19.960938 5.023438 C 19.914062 5.003906 19.867188 4.992188 19.816406 4.992188 L 19.007812 4.992188 C 18.898438 4.992188 18.796875 5.035156 18.722656 5.113281 L 18.316406 5.515625 C 18.242188 5.59375 18.199219 5.695312 18.199219 5.800781 L 18.199219 6.609375 C 18.199219 6.660156 18.207031 6.710938 18.226562 6.753906 C 18.234375 6.769531 18.242188 6.78125 18.25 6.792969 C 18.261719 6.816406 18.269531 6.839844 18.285156 6.859375 L 18.042969 7.101562 C 18.023438 7.085938 18 7.078125 17.976562 7.066406 C 17.964844 7.058594 17.953125 7.050781 17.9375 7.042969 C 17.890625 7.027344 17.84375 7.015625 17.792969 7.015625 L 16.984375 7.015625 C 16.878906 7.015625 16.773438 7.058594 16.699219 7.132812 L 16.292969 7.539062 C 16.21875 7.613281 16.175781 7.714844 16.175781 7.824219 L 16.175781 8.632812 C 16.175781 8.683594 16.1875 8.730469 16.203125 8.777344 C 16.210938 8.789062 16.21875 8.804688 16.226562 8.816406 C 16.238281 8.839844 16.246094 8.863281 16.261719 8.882812 L 16.019531 9.121094 C 16 9.109375 15.976562 9.097656 15.957031 9.085938 C 15.941406 9.082031 15.929688 9.070312 15.914062 9.066406 C 15.871094 9.046875 15.820312 9.039062 15.773438 9.039062 L 14.960938 9.039062 C 14.855469 9.039062 14.753906 9.078125 14.675781 9.15625 L 14.273438 9.558594 C 14.195312 9.636719 14.152344 9.738281 14.152344 9.847656 L 14.152344 10.65625 C 14.152344 10.703125 14.164062 10.753906 14.183594 10.796875 C 14.1875 10.8125 14.199219 10.824219 14.203125 10.839844 C 14.214844 10.859375 14.222656 10.882812 14.238281 10.902344 L 14 11.144531 C 13.980469 11.128906 13.957031 11.121094 13.933594 11.109375 C 13.917969 11.101562 13.90625 11.09375 13.894531 11.085938 C 13.847656 11.070312 13.800781 11.058594 13.75 11.058594 L 12.941406 11.058594 C 12.832031 11.058594 12.730469 11.101562 12.65625 11.175781 L 12.25 11.582031 C 12.175781 11.65625 12.132812 11.761719 12.132812 11.867188 L 12.132812 12.675781 C 12.132812 12.726562 12.144531 12.773438 12.160156 12.820312 C 12.167969 12.835938 12.175781 12.847656 12.183594 12.859375 C 12.195312 12.882812 12.203125 12.90625 12.21875 12.925781 L 11.976562 13.167969 C 11.957031 13.152344 11.933594 13.144531 11.910156 13.132812 C 11.898438 13.125 11.886719 13.117188 11.871094 13.109375 C 11.824219 13.09375 11.777344 13.082031 11.726562 13.082031 L 10.917969 13.082031 C 10.8125 13.082031 10.707031 13.125 10.632812 13.199219 L 10.230469 13.605469 C 10.152344 13.679688 10.109375 13.78125 10.109375 13.890625 L 10.109375 14.699219 C 10.109375 14.75 10.121094 14.796875 10.140625 14.84375 C 10.144531 14.855469 10.152344 14.867188 10.160156 14.882812 C 10.171875 14.90625 10.179688 14.929688 10.195312 14.949219 L 9.351562 15.792969 L 8.207031 14.648438 L 10.667969 12.1875 L 11.039062 12.558594 C 11.117188 12.636719 11.21875 12.675781 11.324219 12.675781 C 11.425781 12.675781 11.53125 12.636719 11.609375 12.558594 C 11.765625 12.398438 11.765625 12.144531 11.609375 11.988281 L 11.238281 11.617188 L 16.734375 6.121094 L 17.101562 6.492188 C 17.183594 6.570312 17.285156 6.609375 17.390625 6.609375 C 17.492188 6.609375 17.597656 6.570312 17.675781 6.492188 C 17.832031 6.335938 17.832031 6.078125 17.675781 5.921875 L 17.304688 5.550781 L 21.980469 0.875 C 22.070312 0.785156 22.21875 0.785156 22.308594 0.875 L 23.125 1.691406 C 23.214844 1.78125 23.214844 1.929688 23.125 2.019531 Z M 23.125 2.019531"/>
</svg>

<svg xmlns="http://www.w3.org/2000/svg" width="32" height="32" viewBox="0 0 24 24">
    <path d="M23.695 1.121L22.88.305a1.042 1.042 0 0 0-1.473 0L16.734 4.98l-.675-.68a.41.41 0 0 0-.575 0l-6.066 6.067a.41.41 0 0 0 0 .574l.676.676-2.461 2.461-.27-.273a.41.41 0 0 0-.574 0 .41.41 0 0 0 0 .574l.274.27-.641.64-.274-.27a.399.399 0 0 0-.57 0 .399.399 0 0 0 0 .57l.27.274-.977.977a.413.413 0 0 0-.57 0l-2.29 2.289a.406.406 0 0 0 0 .57L.118 21.594a.41.41 0 0 0 0 .574l1.715 1.715a.414.414 0 0 0 .29.117c.1 0 .206-.04.284-.117l1.895-1.899a.394.394 0 0 0 .57 0l2.29-2.285a.392.392 0 0 0 .116-.285c0-.11-.039-.21-.117-.285l.977-.98.273.273a.405.405 0 0 0 .57 0 .399.399 0 0 0 0-.57l-.27-.274.642-.64.27.269a.402.402 0 0 0 .573 0 .406.406 0 0 0 0-.57l-.273-.27.883-.883a.366.366 0 0 0 .113.024h.809c.109 0 .21-.043.289-.117l.402-.407a.409.409 0 0 0 .117-.285v-.808a.416.416 0 0 0-.023-.118l.312-.312c.04.012.078.023.117.023h.809c.11 0 .21-.043.285-.117l.406-.406a.402.402 0 0 0 .118-.285v-.809a.416.416 0 0 0-.024-.117l.313-.309c.039.012.074.024.117.024h.808a.403.403 0 0 0 .286-.121l.402-.403a.403.403 0 0 0 .121-.285v-.808c0-.043-.012-.078-.023-.118l.312-.312a.366.366 0 0 0 .113.023h.809c.11 0 .21-.043.285-.117l.406-.406a.402.402 0 0 0 .118-.285v-.809a.416.416 0 0 0-.024-.117l.313-.309c.039.008.078.02.117.02h.808c.106 0 .211-.04.286-.117l.406-.403a.418.418 0 0 0 .117-.289v-.808a.366.366 0 0 0-.023-.114l.71-.714.075.07c.234.238.547.355.855.355a1.214 1.214 0 0 0 .86-2.07l-.07-.07.663-.668a1.037 1.037 0 0 0 0-1.469zM2.121 23.023L.977 21.88l1.609-1.61 1.144 1.145zm2.465-1.894L2.87 19.414 4.586 17.7l1.719 1.715zm5.691-10.473l5.496-5.496.387.39-5.492 5.497zM6.59 18.555L5.445 17.41l.977-.976 1.144 1.144zm1.547-1.547l-1.145-1.145.64-.64 1.145 1.144zm3.59-2.477l-.168.168h-.473l-.168-.168v-.472l.168-.168h.473l.168.168zm2.023-2.023l-.168.168h-.473l-.168-.168v-.473l.168-.168h.473l.168.168zm2.023-2.02l-.168.168h-.476l-.168-.168v-.476l.168-.164h.476l.133.132.035.032zm2.02-2.023l-.168.168h-.473l-.168-.168v-.473l.168-.168h.473l.168.168zm2.023-2.024l-.168.168h-.472l-.168-.168V5.97l.168-.168h.472l.168.168zm2.711-2.543a.406.406 0 0 1-.57.574l-.07-.07.57-.574zm.598-1.878l-.668.664-.5-.5a.406.406 0 0 0-.57 0 .399.399 0 0 0 0 .57l.5.504-.57.57-.505-.5a.399.399 0 0 0-.57 0 .399.399 0 0 0 0 .57l.5.504-.676.676c-.02-.016-.043-.023-.066-.035-.016-.008-.027-.016-.04-.02a.37.37 0 0 0-.144-.03h-.808a.39.39 0 0 0-.285.12l-.407.403a.416.416 0 0 0-.117.285v.808c0 .051.008.102.028.145.007.016.015.027.023.039.012.023.02.047.035.066l-.242.243c-.02-.016-.043-.024-.066-.036-.012-.007-.024-.015-.04-.023a.452.452 0 0 0-.144-.027h-.809a.409.409 0 0 0-.285.117l-.406.406a.402.402 0 0 0-.117.285v.809c0 .05.012.097.027.144l.024.04c.011.023.02.046.035.066l-.242.238-.063-.035c-.016-.004-.027-.016-.043-.02a.347.347 0 0 0-.14-.027h-.813a.399.399 0 0 0-.285.117l-.403.403a.405.405 0 0 0-.12.289v.808c0 .047.011.098.03.14.005.017.016.028.02.044.012.02.02.043.035.062l-.238.243c-.02-.016-.043-.024-.066-.036-.016-.007-.028-.015-.04-.023a.452.452 0 0 0-.144-.027h-.809c-.109 0-.21.043-.285.117l-.406.406a.409.409 0 0 0-.117.285v.809c0 .05.012.097.027.144a.343.343 0 0 0 .024.04c.011.023.02.046.035.066l-.242.242c-.02-.016-.043-.023-.067-.035a.344.344 0 0 0-.039-.024.452.452 0 0 0-.144-.027h-.809a.409.409 0 0 0-.285.117l-.403.406a.39.39 0 0 0-.12.286v.808c0 .051.011.098.03.145l.02.039c.012.023.02.047.035.066l-.843.844-1.145-1.145 2.461-2.46.371.37a.405.405 0 0 0 .57 0 .406.406 0 0 0 0-.57l-.37-.37 5.495-5.497.368.371a.414.414 0 0 0 .289.117c.101 0 .207-.039.285-.117a.406.406 0 0 0 0-.57l-.371-.371L21.98.875c.09-.09.239-.09.329 0l.816.816c.09.09.09.239 0 .329zm0 0"/>
</svg>
